public/images/broadcasters/orf.svg

<svg clip-rule="evenodd" fill-rule="evenodd" stroke-linejoin="round" stroke-miterlimit="2" viewBox="0 0 39 17" xmlns="http://www.w3.org/2000/svg"><path d="m39.073 17h-39.073v-17h39.073zm-26.115-8.5c0-2.776-2.196-4.917-4.938-4.917-2.743 0-4.94 2.142-4.94 4.917s2.197 4.917 4.94 4.917c2.742 0 4.938-2.141 4.938-4.917zm-2.343 0c0 1.493-1.253 2.685-2.595 2.685-1.357 0-2.595-1.192-2.595-2.685 0-1.494 1.238-2.685 2.595-2.685 1.341 0 2.595 1.192 2.595 2.685zm17.556 4.73h2.27v-3.188h4.288v-2.23h-4.289v-1.817h5.261v-2.232h-7.53zm-11.942.006h2.271v-2.76h1.696l1.784 2.76h2.83l-2.285-3.318c1.076-.483 1.828-1.523 1.828-2.805 0-1.886-1.355-3.35-3.42-3.35h-4.704zm4.571-4.992h-2.3v-2.248h2.3c.987 0 1.282.498 1.282 1.117 0 .633-.295 1.131-1.282 1.131z" fill="#fff"/></svg>

<?xml version="1.0" encoding="UTF-8" standalone="no"?>
<!DOCTYPE svg PUBLIC "-//W3C//DTD SVG 1.1//EN" "http://www.w3.org/Graphics/SVG/1.1/DTD/svg11.dtd">
<svg width="100%" height="100%" viewBox="0 0 39 17" version="1.1" xmlns="http://www.w3.org/2000/svg" xmlns:xlink="http://www.w3.org/1999/xlink" xml:space="preserve" xmlns:serif="http://www.serif.com/" style="fill-rule:evenodd;clip-rule:evenodd;stroke-linejoin:round;stroke-miterlimit:2;">
    <path d="M39.073,17L0,17L0,0L39.073,0L39.073,17ZM12.958,8.5C12.958,5.724 10.762,3.583 8.02,3.583C5.277,3.583 3.08,5.725 3.08,8.5C3.08,11.275 5.277,13.417 8.02,13.417C10.762,13.417 12.958,11.276 12.958,8.5ZM10.615,8.5C10.615,9.993 9.362,11.185 8.02,11.185C6.663,11.185 5.425,9.993 5.425,8.5C5.425,7.006 6.663,5.815 8.02,5.815C9.361,5.815 10.615,7.007 10.615,8.5ZM28.171,13.23L30.441,13.23L30.441,10.042L34.729,10.042L34.729,7.812L30.44,7.812L30.44,5.995L35.701,5.995L35.701,3.763L28.171,3.763L28.171,13.23ZM16.229,13.236L18.5,13.236L18.5,10.476L20.196,10.476L21.98,13.236L24.81,13.236L22.525,9.918C23.601,9.435 24.353,8.395 24.353,7.113C24.353,5.227 22.998,3.763 20.933,3.763L16.229,3.763L16.229,13.236ZM20.8,8.244L18.5,8.244L18.5,5.996L20.8,5.996C21.787,5.996 22.082,6.494 22.082,7.113C22.082,7.746 21.787,8.244 20.8,8.244Z" style="fill:white;"/>
</svg>
